packages/tokens/icons/coinStack/size16Px.svg

<svg viewBox="0 0 16 16" fill="none" xmlns="http://www.w3.org/2000/svg" width="1em" height="1em"><path d="M9.5 6.38462V6.25275V6.25275C9.5 5.83702 9.16298 5.5 8.74725 5.5H7.13462C6.50798 5.5 6 6.00798 6 6.63462V6.63462C6 7.26125 6.50798 7.76923 7.13462 7.76923H8.63462C9.3887 7.76923 10 8.38053 10 9.13462V9.13462C10 9.8887 9.3887 10.5 8.63462 10.5H7.08242C6.48461 10.5 6 10.0154 6 9.41758V9.41758V9.15385" stroke="currentColor" stroke-linecap="round"/><path d="M8 4L8 5" stroke="currentColor" stroke-linecap="round"/><path d="M8 11V12" stroke="currentColor" stroke-linecap="round"/><circle cx="8" cy="8" r="6.5" stroke="currentColor"/></svg>

<svg xmlns="http://www.w3.org/2000/svg" fill="none" viewBox="0 0 16 16" width="1em" height="1em"><path stroke="currentColor" stroke-linecap="round" d="M9.5 6.385v-.132 0a.753.753 0 0 0-.753-.753H7.135C6.508 5.5 6 6.008 6 6.635v0c0 .626.508 1.134 1.135 1.134h1.5c.754 0 1.365.612 1.365 1.366v0c0 .754-.611 1.365-1.365 1.365H7.082A1.082 1.082 0 0 1 6 9.418v0-.264M8 4v1m0 6v1"/><circle cx="8" cy="8" r="6.5" stroke="currentColor"/></svg>
